X: 1
T: Way up in Clachan
T: One Night in the Shieling
C: trad. Scotland
R: waltz
Z: 2015 John Chambers <jc:trillian.mit.edu>
S: Printed MS of unknown origin, from Dan Wheatley
M: 3/4
L: 1/4
K: D
A |\
"D"DFA | AFA | "G"BGB | "D"AF>A |\
"D"DFA | AFA | "E7"BE>E | "A7"E2A |\
"D"DFA | AFA |
"G"BG>B | "D"AFD |\
"D"FFF | "A7"AG>E | "D"EDD | DEF |]|\
"D"d3 | "G"d2B | "D"ABA | FED |
"D"d2d | "G"d2B | "Em"AGF | "A7"E3 |\
"D"d2d | "G"d2B | "D"ABA | "Bm"FED |\
"D"F>FF | "A7"AGE | "D"EDD | D2 |]
